X:1
T: Mrs. A. McGlashan
C:John McGlashan
R:Jig
Q:180
K:Gm
M:6/8
L:1/16
|:BA|G4A2 G2D2B,2|G,2B,2D2 B2A2G2|F4c2 A4f2|c2d2c2 A2G2F2|
G4A2 G2D2B,2|G,2B,2D2 B2A2G2|F2f2d2 c2A2c2|d2B2G2 G4:|
a2|:gab2a2 g2d2B2|G2B2d2 g2a2b2|f2a2g2 f2c2A2|F2A2c2 f2g2a2|
|1g2b2a2 g2d2B2|G2B2d2 g2b2g2|f2a2f2 c2B2c2|d2B2G2 G4d2:|
|2b2g2b2 a2f2a2|g2d2g2 f2c2f2|d2f2d2 c2B2c2|d2B2G2 G4||
